X:1
T:Title
%%score { ( 1 2 ) | ( 3 4 ) }
L:1/8
M:4/4
K:E
V:1 treble nm="Grand Piano"
V:2 treble 
V:3 bass 
V:4 bass 
V:1
 z4 z2[Q:1/4=100] z F | G2 [GB]2 [GB]3 [Ac] | [GB]2 E2 G4 | GFEG [GB]2 [EG]2 | [DF]4 E2 z F | %5
 G2 [GB]2 [GB]3 [Ac] | [GB]2 E2 G4 | GFEG [EGB]2 [B,EG]2 |[M:3/4] [A,DF]4 [G,E]2 |[M:1/4] [EGB]2 | %10
[M:4/4] c3 c e2 c2 | [GB]6 [GB]2 | c3 c e2 c2 | [GB]6 [GB]2 | [Ge]2 [GB]2 G2 [Ac]2 | [GB]6 z2 | %16
 GFEG [EGB]2 [B,EG]2 |[M:3/4] [A,DF]4 [G,E]2 |] %18
V:2
 z4 z2 E2 | x8 | x8 | x8 | z4 z2 E2 | x8 | x8 | x8 |[M:3/4] x6 |[M:1/4] x2 |[M:4/4] x8 | x8 | x8 | %13
 x8 | x8 | x8 | x8 |[M:3/4] x6 |] %18
V:3
 z4 z2 G,A, | [E,B,E]2 [E,E]2 [E,E]3 [E,E] | [E,E]2 [E,G,]2 [E,B,E]4 | %3
 [E,B,E][E,A,E][E,G,][E,B,E] [E,E]2 [E,B,]2 | [B,,A,]4 [E,G,]2 G,A, | %5
 [E,B,E]2 [E,E]2 [E,E]3 [E,E] | [E,E]2 [E,G,]2 [E,B,E]4 | [E,B,E][E,A,E][E,G,][E,B,E] E,2 E,2 | %8
[M:3/4] B,,4 E,2 |[M:1/4] E,2 |[M:4/4][K:treble] [A,EA]3 [A,EA] [A,CA]2 [A,EA]2 | [E,E]6 [E,E]2 | %12
 [A,EA]3 [A,EA] [A,CA]2 [A,EA]2 | [E,E]6 [E,E]2 | [E,B,]2 [E,E]2 [E,E]2 [E,E]2 | [E,E]6 z2 | %16
 [E,B,E][E,A,E][E,G,][E,B,E] E,2 E,2 |[M:3/4] B,,4 E,2 |] %18
V:4
 z4 z2 E,2 | x8 | x8 | x8 | z4 z2 E,2 | x8 | x8 | x8 |[M:3/4] x6 |[M:1/4] x2 | %10
[M:4/4][K:treble] x8 | x8 | x8 | x8 | x8 | x8 | x8 |[M:3/4] x6 |] %18

